app/img/contact/ic_industry_1.svg

<svg width="22" height="22" viewBox="0 0 22 22" fill="none" xmlns="http://www.w3.org/2000/svg">
    <path d="M11 2.06645C15.9257 2.06645 19.9338 6.07426 19.9338 11.0002C19.9338 15.9261 15.9257 19.934 11 19.934C6.07427 19.934 2.06624 15.9259 2.06624 11.0002C2.06624 6.07447 6.07427 2.06645 11 2.06645ZM11 1C5.47645 1 1 5.47665 1 11C1 16.5233 5.47665 21 11 21C16.5234 21 21 16.5233 21 11C21 5.47665 16.5236 1 11 1Z"
          fill="#5E2CE6" fill-opacity="0.8"/>
    <path d="M11 2.21645C15.8429 2.21645 19.7838 6.15711 19.7838 11.0002C19.7838 15.8433 15.8429 19.784 11 19.784C6.15711 19.784 2.21624 15.8431 2.21624 11.0002C2.21624 6.15731 6.15711 2.21645 11 2.21645ZM11 0.85C5.3936 0.85 0.85 5.39381 0.85 11C0.85 16.6062 5.39381 21.15 11 21.15C16.6062 21.15 21.15 16.6062 21.15 11C21.15 5.39381 16.6064 0.85 11 0.85Z"
          stroke="#5E2CE6" stroke-opacity="0.8" stroke-width="0.3"/>
    <path d="M11.5676 10.4513C9.97703 9.92922 9.53041 9.00863 9.63142 8.37831C9.72255 7.80744 10.2928 7.2306 11.3599 7.2306C12.7337 7.2306 13.0239 8.5328 13.0527 8.68627C13.1177 9.04833 13.4798 9.28203 13.8236 9.22464C14.1869 9.16086 14.3942 8.81505 14.3307 8.45257C14.193 7.66755 13.572 6.26187 11.9262 5.95679V4.80229C11.9262 4.43385 11.6775 4.13556 11.3091 4.13556C10.9404 4.13556 10.6919 4.43385 10.6919 4.80229V5.9609C9.45759 6.19193 8.51066 7.03517 8.32984 8.16806C8.14633 9.31598 8.77151 10.9344 11.1595 11.7182C12.4152 12.1304 13.0953 12.7906 12.9846 13.4859C12.8896 14.0835 12.1675 14.7033 11.1272 14.7033C9.34465 14.7033 9.21669 13.7332 9.20969 13.5509C9.20969 13.1825 8.9112 12.8844 8.54255 12.8844C8.17411 12.8844 7.89062 13.1825 7.89062 13.5509C7.89062 14.3563 8.42899 15.835 10.6919 16.0179V16.9545C10.6919 17.3232 10.9404 17.6213 11.3091 17.6213C11.6775 17.6213 11.9262 17.3232 11.9262 16.9545V15.9342C13.1605 15.6462 14.0906 14.779 14.2628 13.6953C14.3475 13.172 14.4315 11.39 11.5676 10.4513Z"
          fill="#5E2CE6" fill-opacity="0.8"/>
    <path d="M9.77954 8.40195L9.77953 8.40204C9.69499 8.92961 10.0604 9.79873 11.6144 10.3088C13.0747 10.7875 13.8056 11.4894 14.154 12.1599C14.5007 12.8271 14.4561 13.4395 14.4109 13.7191C14.2324 14.8416 13.2983 15.7266 12.0762 16.0513V16.9545C12.0762 17.3903 11.7752 17.7713 11.3091 17.7713C10.8427 17.7713 10.5419 17.3903 10.5419 16.9545V16.1545C9.45588 16.0386 8.75719 15.6216 8.32818 15.1147C7.88432 14.5903 7.74062 13.9833 7.74062 13.5509C7.74062 13.104 8.08695 12.7344 8.54255 12.7344C8.99281 12.7344 9.35795 13.0977 9.35969 13.5477C9.36292 13.6205 9.39201 13.8645 9.61062 14.0914C9.82975 14.3188 10.2629 14.5533 11.1272 14.5533C12.118 14.5533 12.7565 13.9656 12.8365 13.4623L12.8365 13.4623C12.882 13.1767 12.7695 12.8841 12.4801 12.6036C12.1889 12.3214 11.728 12.0627 11.1127 11.8607C8.66539 11.0574 7.98491 9.37565 8.18171 8.14442L9.77954 8.40195ZM9.77954 8.40195C9.85656 7.91952 10.3495 7.3806 11.3599 7.3806C11.9899 7.3806 12.3638 7.67542 12.5889 7.98846C12.8178 8.30683 12.8924 8.64526 12.9052 8.71343C12.9858 9.16025 13.4281 9.44274 13.8483 9.37259L13.8483 9.37259M9.77954 8.40195L13.8483 9.37259M13.8483 9.37259L13.8495 9.37238M13.8483 9.37259L13.8495 9.37238M13.8495 9.37238C14.3061 9.29222 14.5541 8.85849 14.4784 8.42667L13.8495 9.37238ZM12.0762 5.83435V4.80229C12.0762 4.36672 11.7752 3.98556 11.3091 3.98556C10.8427 3.98556 10.5419 4.36675 10.5419 4.80229V5.8385C9.31755 6.11049 8.36837 6.97507 8.18172 8.14439L12.0762 5.83435Z"
          stroke="#5E2CE6" stroke-opacity="0.8" stroke-width="0.3"/>
</svg>

<svg width="22" height="22" fill="none" xmlns="http://www.w3.org/2000/svg"><path d="M11 2.066c4.926 0 8.934 4.008 8.934 8.934 0 4.926-4.008 8.934-8.934 8.934-4.926 0-8.934-4.008-8.934-8.934 0-4.926 4.008-8.934 8.934-8.934ZM11 1C5.476 1 1 5.477 1 11s4.477 10 10 10 10-4.477 10-10S16.524 1 11 1Z" fill="#5E2CE6" fill-opacity=".8"/><path d="M11 2.216c4.843 0 8.784 3.941 8.784 8.784 0 4.843-3.941 8.784-8.784 8.784-4.843 0-8.784-3.94-8.784-8.784 0-4.843 3.941-8.784 8.784-8.784ZM11 .85C5.394.85.85 5.394.85 11c0 5.606 4.544 10.15 10.15 10.15 5.606 0 10.15-4.544 10.15-10.15C21.15 5.394 16.606.85 11 .85Z" stroke="#5E2CE6" stroke-opacity=".8" stroke-width=".3"/><path d="M11.568 10.451C9.977 9.93 9.53 9.01 9.63 8.378c.092-.57.662-1.147 1.729-1.147 1.374 0 1.664 1.302 1.693 1.455a.68.68 0 0 0 .77.539c.364-.064.571-.41.508-.772-.138-.785-.759-2.191-2.405-2.496V4.802c0-.368-.248-.666-.617-.666s-.617.298-.617.666v1.159C9.458 6.19 8.51 7.035 8.33 8.168c-.184 1.148.442 2.766 2.83 3.55 1.255.412 1.935 1.073 1.825 1.768-.095.598-.817 1.217-1.858 1.217-1.782 0-1.91-.97-1.917-1.152a.666.666 0 0 0-.667-.667.654.654 0 0 0-.652.667c0 .805.538 2.284 2.8 2.467v.936c0 .37.25.667.618.667.369 0 .617-.298.617-.666v-1.02c1.235-.289 2.165-1.156 2.337-2.24.085-.523.168-2.305-2.695-3.244Z" fill="#5E2CE6" fill-opacity=".8"/><path d="M9.78 8.402c-.085.528.28 1.397 1.834 1.907 1.46.479 2.192 1.18 2.54 1.85.347.668.302 1.28.257 1.56-.179 1.123-1.113 2.008-2.335 2.332v.904c0 .435-.3.816-.767.816-.466 0-.767-.38-.767-.817v-.8c-1.086-.115-1.785-.532-2.214-1.04a2.473 2.473 0 0 1-.587-1.563c0-.447.346-.817.802-.817.45 0 .815.364.817.814a.866.866 0 0 0 .25.543c.22.228.653.462 1.517.462.991 0 1.63-.587 1.71-1.09.045-.286-.067-.579-.357-.86-.291-.282-.752-.54-1.367-.742-2.448-.804-3.128-2.485-2.931-3.717l1.598.258Zm0 0c.077-.482.57-1.021 1.58-1.021.63 0 1.004.294 1.229.607.229.319.303.657.316.725a.83.83 0 0 0 .943.66M9.78 8.402l4.068.97m0 0h.002m-.002 0h.002m0 0c.456-.08.704-.514.628-.945l-.628.945Zm-1.774-3.538V4.802c0-.435-.3-.816-.767-.816-.466 0-.767.38-.767.816V5.84c-1.224.271-2.174 1.136-2.36 2.305l3.894-2.31Z" stroke="#5E2CE6" stroke-opacity=".8" stroke-width=".3"/></svg>
